icons/git-repository-commits-line.svg

<svg xmlns="http://www.w3.org/2000/svg" width="24" height="24" fill="none"><g clip-path="url(#a)"><g><path fill="#121212" d="M18 16V14H19V4H6V14.035C6.16563 14.0115 6.33271 13.9998 6.5 14H8V16H6.5C6.10218 16 5.72064 16.158 5.43934 16.4393C5.15804 16.7206 5 17.1022 5 17.5C5 17.8978 5.15804 18.2794 5.43934 18.5607C5.72064 18.842 6.10218 19 6.5 19H10V21H6.5C5.57174 21 4.6815 20.6313 4.02513 19.9749C3.36875 19.3185 3 18.4283 3 17.5V5C3 4.20435 3.31607 3.44129 3.87868 2.87868C4.44129 2.31607 5.20435 2 6 2H20C20.2652 2 20.5196 2.10536 20.7071 2.29289C20.8946 2.48043 21 2.73478 21 3V20C21 20.2652 20.8946 20.5196 20.7071 20.7071C20.5196 20.8946 20.2652 21 20 21H16V19H19V16H18ZM7 5H9V7H7V5ZM7 8H9V10H7V8ZM14 17V23H12V17H9L13 12L17 17H14Z"/></g></g><defs><clipPath id="a"><rect width="24" height="24" fill="white"/></clipPath></defs></svg>

<svg width="24" height="24" fill="none" xmlns="http://www.w3.org/2000/svg"><g clip-path="url(#a)"><path d="M18 16v-2h1V4H6v10.035A3.53 3.53 0 0 1 6.5 14H8v2H6.5a1.5 1.5 0 1 0 0 3H10v2H6.5A3.5 3.5 0 0 1 3 17.5V5a3 3 0 0 1 3-3h14a1 1 0 0 1 1 1v17a1 1 0 0 1-1 1h-4v-2h3v-3h-1ZM7 5h2v2H7V5Zm0 3h2v2H7V8Zm7 9v6h-2v-6H9l4-5 4 5h-3Z" /></g><defs><clipPath id="a"><path fill="#fff" d="M0 0h24v24H0z"/></clipPath></defs></svg>
